img/t-shirt.svg

<svg width="80" height="80" viewBox="0 0 80 80" fill="none" xmlns="http://www.w3.org/2000/svg">
<path d="M79.9337 20.2836C79.9112 20.2073 79.8862 20.1373 79.8499 20.0661C79.8124 19.9898 79.7649 19.9236 79.7112 19.8561C79.6824 19.8198 79.6687 19.7748 79.6337 19.7398L67.1362 7.23859C67.1037 7.20609 67.0599 7.19359 67.0262 7.16484C66.9599 7.11234 66.8937 7.06484 66.8162 7.02609C66.7387 6.98734 66.6624 6.95859 66.5799 6.93609C66.5374 6.92484 66.5024 6.89734 66.4574 6.88984L51.4549 4.38859C51.4187 4.38234 51.3849 4.39484 51.3487 4.39234C51.3137 4.38984 51.2824 4.37109 51.2474 4.37109H28.7524C28.7162 4.37109 28.6862 4.38859 28.6512 4.39234C28.6149 4.39484 28.5812 4.38234 28.5449 4.38859L13.5424 6.88984C13.4974 6.89734 13.4637 6.92484 13.4199 6.93609C13.3374 6.95984 13.2599 6.98734 13.1837 7.02609C13.1074 7.06484 13.0399 7.11234 12.9737 7.16484C12.9399 7.19234 12.8962 7.20609 12.8637 7.23859L0.366178 19.7398C0.332428 19.7736 0.318678 19.8186 0.288678 19.8561C0.234928 19.9236 0.187428 19.9898 0.149928 20.0661C0.113678 20.1373 0.087428 20.2073 0.066178 20.2836C0.043678 20.3623 0.028678 20.4373 0.021178 20.5173C0.013678 20.5973 0.017428 20.6736 0.024928 20.7523C0.033678 20.8311 0.047428 20.9061 0.069928 20.9836C0.094928 21.0636 0.128678 21.1361 0.169928 21.2111C0.192428 21.2536 0.197428 21.3011 0.226178 21.3411L8.98118 33.8423C8.98243 33.8436 8.98493 33.8448 8.98618 33.8461C8.98743 33.8473 8.98743 33.8498 8.98868 33.8511C9.05618 33.9448 9.15368 33.9973 9.23868 34.0661C9.30868 34.1211 9.36368 34.1998 9.43993 34.2386C9.61493 34.3286 9.80993 34.3748 10.0062 34.3748C10.1312 34.3748 10.2562 34.3561 10.3787 34.3173C10.4174 34.3048 10.4524 34.2786 10.4899 34.2623C10.5687 34.2286 10.6499 34.1998 10.7224 34.1486C10.7237 34.1473 10.7249 34.1461 10.7262 34.1448C10.7274 34.1436 10.7299 34.1436 10.7324 34.1423L17.5062 29.3036V70.6111C17.5062 70.6198 17.5012 70.6273 17.5012 70.6361C17.5012 70.6448 17.5062 70.6523 17.5062 70.6611V71.8848C17.5062 73.9498 19.1862 75.6298 21.2512 75.6298H58.7512C60.8162 75.6298 62.4962 73.9498 62.4962 71.8848V29.3036L69.2699 34.1423C69.2724 34.1436 69.2749 34.1436 69.2762 34.1448C69.2774 34.1461 69.2787 34.1473 69.2799 34.1486C69.3524 34.1998 69.4324 34.2286 69.5124 34.2623C69.5499 34.2786 69.5849 34.3048 69.6237 34.3173C69.7462 34.3561 69.8712 34.3748 69.9962 34.3748C70.1924 34.3748 70.3874 34.3286 70.5624 34.2398C70.6399 34.2011 70.6937 34.1223 70.7637 34.0673C70.8487 33.9973 70.9462 33.9461 71.0137 33.8523C71.0149 33.8511 71.0149 33.8498 71.0162 33.8473C71.0174 33.8448 71.0199 33.8448 71.0212 33.8436L79.7762 21.3423C79.8037 21.3023 79.8099 21.2548 79.8324 21.2123C79.8737 21.1373 79.9087 21.0648 79.9324 20.9848C79.9562 20.9073 79.9687 20.8323 79.9774 20.7536C79.9849 20.6736 79.9887 20.5973 79.9812 20.5186C79.9724 20.4361 79.9562 20.3611 79.9337 20.2836ZM69.6949 31.3748L61.9712 25.8573C61.9349 25.8311 61.8912 25.8261 61.8512 25.8036C61.7762 25.7611 61.7037 25.7273 61.6199 25.6998C61.5387 25.6736 61.4587 25.6598 61.3749 25.6498C61.3299 25.6448 61.2912 25.6236 61.2449 25.6236C61.2099 25.6236 61.1787 25.6411 61.1437 25.6436C61.0612 25.6511 60.9824 25.6698 60.9024 25.6936C60.8237 25.7161 60.7487 25.7398 60.6762 25.7773C60.6099 25.8123 60.5512 25.8561 60.4924 25.9023C60.4212 25.9573 60.3587 26.0136 60.3012 26.0823C60.2787 26.1086 60.2487 26.1211 60.2287 26.1486C60.2024 26.1848 60.1974 26.2273 60.1762 26.2661C60.1337 26.3411 60.0974 26.4161 60.0712 26.4998C60.0449 26.5811 60.0312 26.6598 60.0224 26.7448C60.0174 26.7898 59.9962 26.8286 59.9962 26.8748V69.3861H20.0049V26.8748C20.0049 26.8286 19.9824 26.7898 19.9787 26.7448C19.9699 26.6611 19.9549 26.5823 19.9299 26.5011C19.9037 26.4173 19.8674 26.3423 19.8249 26.2673C19.8024 26.2286 19.7987 26.1861 19.7724 26.1498C19.7524 26.1223 19.7224 26.1086 19.6999 26.0823C19.6437 26.0148 19.5787 25.9586 19.5099 25.9036C19.4487 25.8561 19.3899 25.8123 19.3237 25.7773C19.2524 25.7411 19.1799 25.7173 19.1012 25.6948C19.0199 25.6711 18.9399 25.6523 18.8549 25.6448C18.8212 25.6423 18.7912 25.6248 18.7562 25.6248C18.7099 25.6248 18.6724 25.6461 18.6262 25.6511C18.5424 25.6598 18.4612 25.6748 18.3787 25.7011C18.2974 25.7273 18.2237 25.7611 18.1499 25.8036C18.1112 25.8261 18.0674 25.8298 18.0287 25.8573L10.3049 31.3748L2.87618 20.7661L14.3487 9.28984L27.5962 7.08109C28.3224 13.2861 33.6049 18.1198 40.0012 18.1198C46.3974 18.1198 51.6799 13.2861 52.4062 7.08109L65.6537 9.28984L77.1262 20.7661L69.6949 31.3748ZM58.7499 73.1286H21.2499C20.5649 73.1286 20.0074 72.5711 20.0049 71.8861H59.9949C59.9924 72.5711 59.4349 73.1286 58.7499 73.1286ZM30.0887 6.87109H49.9099C49.2912 11.7948 45.0887 15.6198 39.9987 15.6198C34.9087 15.6198 30.7074 11.7961 30.0887 6.87109Z" fill="url(#paint0_linear)"/>
<path d="M38.75 10.6211H41.25C41.9412 10.6211 42.5 10.0611 42.5 9.37109C42.5 8.68109 41.9412 8.12109 41.25 8.12109H38.75C38.0588 8.12109 37.5 8.68109 37.5 9.37109C37.5 10.0611 38.0588 10.6211 38.75 10.6211Z" fill="url(#paint1_linear)"/>
<path d="M54.9288 47.2412C54.9538 47.1599 54.9701 47.0799 54.9788 46.9937C54.9826 46.9537 55.0026 46.9174 55.0026 46.8762C55.0026 46.8374 54.9838 46.8024 54.9801 46.7649C54.9726 46.6812 54.9538 46.6024 54.9301 46.5212C54.9051 46.4387 54.8751 46.3612 54.8351 46.2862C54.8163 46.2524 54.8138 46.2149 54.7926 46.1824L44.7976 31.1799C44.6038 30.8874 44.3063 30.7062 43.9876 30.6462C43.9088 30.6312 43.8313 30.6449 43.7526 30.6449C43.6738 30.6449 43.5963 30.6312 43.5176 30.6462C43.1976 30.7062 42.9013 30.8874 42.7076 31.1799L38.1238 38.0599L36.0376 34.9299C35.8438 34.6399 35.5488 34.4574 35.2313 34.3974C35.1526 34.3812 35.0738 34.3962 34.9951 34.3962C34.9163 34.3962 34.8363 34.3812 34.7588 34.3974C34.4401 34.4574 34.1463 34.6399 33.9526 34.9299L26.4551 46.1824C26.4313 46.2174 26.4288 46.2587 26.4088 46.2962C26.3726 46.3637 26.3451 46.4324 26.3226 46.5087C26.2951 46.5974 26.2751 46.6849 26.2676 46.7774C26.2651 46.8112 26.2476 46.8412 26.2476 46.8762C26.2476 46.9137 26.2663 46.9449 26.2688 46.9812C26.2776 47.0749 26.2951 47.1637 26.3238 47.2537C26.3476 47.3237 26.3713 47.3862 26.4038 47.4499C26.4438 47.5262 26.4901 47.5912 26.5451 47.6587C26.5963 47.7212 26.6501 47.7762 26.7138 47.8274C26.7463 47.8549 26.7651 47.8924 26.8013 47.9162C26.8463 47.9462 26.8963 47.9587 26.9426 47.9837C26.9826 48.0037 27.0201 48.0224 27.0613 48.0387C27.2026 48.0912 27.3476 48.1262 27.4938 48.1262H27.4963H27.4976H53.7526H53.7538C53.8988 48.1262 54.0426 48.0912 54.1838 48.0399C54.2288 48.0224 54.2688 48.0012 54.3126 47.9787C54.3576 47.9562 54.4038 47.9449 54.4463 47.9162C54.4801 47.8924 54.4988 47.8574 54.5288 47.8337C54.5976 47.7787 54.6563 47.7187 54.7101 47.6512C54.7601 47.5887 54.8026 47.5274 54.8401 47.4599C54.8763 47.3899 54.9051 47.3187 54.9288 47.2412ZM43.7526 34.1212L51.4176 45.6262H36.0876L43.7526 34.1212ZM33.0838 45.6262H29.8301L34.9951 37.8737L36.6213 40.3149L33.0838 45.6262Z" fill="url(#paint2_linear)"/>
<path d="M31.25 31.8711C33.3175 31.8711 35 30.1886 35 28.1211C35 26.0536 33.3175 24.3711 31.25 24.3711C29.1825 24.3711 27.5 26.0536 27.5 28.1211C27.5 30.1886 29.1825 31.8711 31.25 31.8711ZM31.25 26.8711C31.94 26.8711 32.5 27.4323 32.5 28.1211C32.5 28.8098 31.94 29.3711 31.25 29.3711C30.56 29.3711 30 28.8098 30 28.1211C30 27.4323 30.56 26.8711 31.25 26.8711Z" fill="url(#paint3_linear)"/>
<defs>
<linearGradient id="paint0_linear" x1="0.01709" y1="40.3836" x2="83.145" y2="39.1307" gradientUnits="userSpaceOnUse">
<stop stop-color="#FCAF45"/>
<stop offset="0.197917" stop-color="#F77737"/>
<stop offset="0.395833" stop-color="#FD1D1D"/>
<stop offset="0.59375" stop-color="#C13584"/>
<stop offset="0.796875" stop-color="#833AB4"/>
<stop offset="1" stop-color="#405DE6"/>
</linearGradient>
<linearGradient id="paint1_linear" x1="37.5" y1="9.38453" x2="42.695" y2="9.24499" gradientUnits="userSpaceOnUse">
<stop stop-color="#FCAF45"/>
<stop offset="0.197917" stop-color="#F77737"/>
<stop offset="0.395833" stop-color="#FD1D1D"/>
<stop offset="0.59375" stop-color="#C13584"/>
<stop offset="0.796875" stop-color="#833AB4"/>
<stop offset="1" stop-color="#405DE6"/>
</linearGradient>
<linearGradient id="paint2_linear" x1="26.2476" y1="39.4767" x2="56.131" y2="38.8167" gradientUnits="userSpaceOnUse">
<stop stop-color="#FCAF45"/>
<stop offset="0.197917" stop-color="#F77737"/>
<stop offset="0.395833" stop-color="#FD1D1D"/>
<stop offset="0.59375" stop-color="#C13584"/>
<stop offset="0.796875" stop-color="#833AB4"/>
<stop offset="1" stop-color="#405DE6"/>
</linearGradient>
<linearGradient id="paint3_linear" x1="27.5" y1="28.1614" x2="35.2967" y2="28.0567" gradientUnits="userSpaceOnUse">
<stop stop-color="#FCAF45"/>
<stop offset="0.197917" stop-color="#F77737"/>
<stop offset="0.395833" stop-color="#FD1D1D"/>
<stop offset="0.59375" stop-color="#C13584"/>
<stop offset="0.796875" stop-color="#833AB4"/>
<stop offset="1" stop-color="#405DE6"/>
</linearGradient>
</defs>
</svg>

<svg width="80" height="80" viewBox="0 0 80 80" fill="none" xmlns="http://www.w3.org/2000/svg"><path d="M79.934 20.284a1.153 1.153 0 00-.222-.427c-.03-.037-.043-.082-.078-.117L67.136 7.239c-.032-.033-.076-.045-.11-.074a1.2 1.2 0 00-.446-.229c-.043-.011-.078-.039-.123-.046L51.455 4.389c-.036-.007-.07.006-.106.003-.035-.002-.067-.02-.102-.02H28.752c-.036 0-.066.017-.1.02-.037.003-.07-.01-.107-.003l-15.003 2.5c-.045.008-.078.036-.122.047-.083.024-.16.051-.236.09a1.242 1.242 0 00-.21.139c-.034.027-.078.041-.11.074L.366 19.739c-.034.035-.047.08-.077.117a1.15 1.15 0 00-.223.428 1.264 1.264 0 00-.045.233 1.35 1.35 0 00.049.466c.025.08.059.153.1.228.022.043.027.09.056.13l8.755 12.501.005.004c.001.001.001.004.003.005.067.094.165.146.25.215.07.055.125.134.2.173a1.24 1.24 0 00.94.078c.038-.012.073-.038.11-.055.08-.033.16-.062.233-.113l.004-.004.006-.003 6.774-4.838V70.61c0 .009-.005.016-.005.025 0 .009.005.016.005.025v1.224a3.75 3.75 0 003.745 3.745h37.5a3.75 3.75 0 003.745-3.745v-42.58l6.774 4.838.006.003.004.004c.072.05.152.08.232.113.038.017.073.043.112.055a1.254 1.254 0 00.939-.078c.077-.038.13-.117.2-.172.086-.07.183-.12.25-.215.002 0 .002-.002.003-.005.001-.002.004-.002.005-.003l8.755-12.502c.028-.04.034-.087.056-.13a1.14 1.14 0 00.145-.458c.008-.08.012-.157.004-.235a1.331 1.331 0 00-.047-.235zm-10.24 11.09l-7.723-5.517c-.036-.026-.08-.03-.12-.053a1.242 1.242 0 00-.231-.104 1.274 1.274 0 00-.245-.05c-.045-.005-.084-.026-.13-.026-.035 0-.066.017-.101.02a1.232 1.232 0 00-.242.05 1.199 1.199 0 00-.226.083 1.224 1.224 0 00-.184.125 1.19 1.19 0 00-.19.18c-.023.027-.053.04-.073.067-.027.036-.032.078-.053.117a1.166 1.166 0 00-.154.479c-.005.045-.026.084-.026.13v42.511H20.005V26.875c0-.046-.023-.085-.026-.13a1.26 1.26 0 00-.05-.244 1.189 1.189 0 00-.104-.234c-.023-.038-.026-.08-.053-.117-.02-.028-.05-.041-.072-.068a1.282 1.282 0 00-.19-.178 1.285 1.285 0 00-.186-.127 1.22 1.22 0 00-.223-.082 1.27 1.27 0 00-.246-.05c-.034-.003-.064-.02-.099-.02-.046 0-.084.021-.13.026a1.171 1.171 0 00-.476.152c-.039.023-.083.027-.121.054l-7.724 5.518-7.429-10.609L14.35 9.29l13.246-2.21c.726 6.205 6.009 11.039 12.405 11.039 6.396 0 11.679-4.834 12.405-11.039l13.248 2.21 11.472 11.476-7.431 10.609zM58.75 73.13h-37.5a1.248 1.248 0 01-1.245-1.243h39.99a1.248 1.248 0 01-1.245 1.243zM30.089 6.87h19.82c-.618 4.924-4.82 8.749-9.91 8.749s-9.292-3.824-9.91-8.749z" fill="url(#paint0_linear)"/><path d="M38.75 10.621h2.5a1.25 1.25 0 100-2.5h-2.5a1.25 1.25 0 100 2.5z" fill="url(#paint1_linear)"/><path d="M54.929 47.241c.025-.081.041-.161.05-.247.004-.04.024-.077.024-.118 0-.039-.02-.074-.023-.111a1.263 1.263 0 00-.05-.244 1.284 1.284 0 00-.095-.235c-.019-.034-.021-.071-.042-.104L44.798 31.18a1.242 1.242 0 00-.81-.534c-.08-.015-.157-.001-.235-.001-.08 0-.157-.014-.235.001-.32.06-.617.241-.81.534l-4.584 6.88-2.086-3.13a1.245 1.245 0 00-.807-.533c-.078-.016-.157 0-.236 0-.079 0-.159-.016-.236 0a1.24 1.24 0 00-.806.533l-7.498 11.252c-.024.035-.026.077-.046.114a1.098 1.098 0 00-.086.213 1.236 1.236 0 00-.055.268c-.003.034-.02.064-.02.1 0 .037.018.068.02.104a1.277 1.277 0 00.136.469 1.224 1.224 0 00.31.377c.032.028.051.065.087.09.045.03.095.042.142.067a1.248 1.248 0 00.551.142h26.259c.146 0 .29-.035.43-.086.046-.018.086-.039.13-.061.045-.023.09-.034.133-.063.034-.024.053-.059.083-.082a1.358 1.358 0 00.311-.374 1.32 1.32 0 00.089-.219zm-11.176-13.12l7.665 11.505h-15.33l7.665-11.505zm-10.67 11.505H29.83l5.165-7.752 1.626 2.44-3.537 5.312z" fill="url(#paint2_linear)"/><path d="M31.25 31.871a3.755 3.755 0 003.75-3.75 3.755 3.755 0 00-3.75-3.75 3.755 3.755 0 00-3.75 3.75 3.755 3.755 0 003.75 3.75zm0-5a1.251 1.251 0 010 2.5 1.251 1.251 0 010-2.5z" fill="url(#paint3_linear)"/><defs><linearGradient id="paint0_linear" x1=".017" y1="40.384" x2="83.145" y2="39.131" gradientUnits="userSpaceOnUse"><stop stop-color="#FCAF45"/><stop offset=".198" stop-color="#F77737"/><stop offset=".396" stop-color="#FD1D1D"/><stop offset=".594" stop-color="#C13584"/><stop offset=".797" stop-color="#833AB4"/><stop offset="1" stop-color="#405DE6"/></linearGradient><linearGradient id="paint1_linear" x1="37.5" y1="9.385" x2="42.695" y2="9.245" gradientUnits="userSpaceOnUse"><stop stop-color="#FCAF45"/><stop offset=".198" stop-color="#F77737"/><stop offset=".396" stop-color="#FD1D1D"/><stop offset=".594" stop-color="#C13584"/><stop offset=".797" stop-color="#833AB4"/><stop offset="1" stop-color="#405DE6"/></linearGradient><linearGradient id="paint2_linear" x1="26.248" y1="39.477" x2="56.131" y2="38.817" gradientUnits="userSpaceOnUse"><stop stop-color="#FCAF45"/><stop offset=".198" stop-color="#F77737"/><stop offset=".396" stop-color="#FD1D1D"/><stop offset=".594" stop-color="#C13584"/><stop offset=".797" stop-color="#833AB4"/><stop offset="1" stop-color="#405DE6"/></linearGradient><linearGradient id="paint3_linear" x1="27.5" y1="28.161" x2="35.297" y2="28.057" gradientUnits="userSpaceOnUse"><stop stop-color="#FCAF45"/><stop offset=".198" stop-color="#F77737"/><stop offset=".396" stop-color="#FD1D1D"/><stop offset=".594" stop-color="#C13584"/><stop offset=".797" stop-color="#833AB4"/><stop offset="1" stop-color="#405DE6"/></linearGradient></defs></svg>
